dist/svgs/crypto-icons/icons/ldoge.svg

<?xml version="1.0" encoding="UTF-8" standalone="yes"?>
<svg xmlns="http://www.w3.org/2000/svg" xmlns:xlink="http://www.w3.org/1999/xlink" width="512px" height="512px" viewBox="0 0 384 384" version="1.1">
  <g id="surface1">
    <path style=" stroke:none;fill-rule:nonzero;fill:rgb(0%,0%,0%);fill-opacity:1;" d="M 358.261719 165.304688 C 364.949219 153.65625 359.496094 149.199219 359.496094 149.199219 C 359.496094 149.199219 364.703125 122.4375 354.046875 122.4375 C 354.046875 116.492188 338.191406 95.433594 336.703125 106.085938 C 336.703125 106.085938 306.722656 82.300781 274.761719 99.890625 C 242.796875 117.484375 245.027344 149.9375 245.027344 149.9375 C 245.027344 149.9375 221.488281 150.433594 212.816406 148.949219 C 204.144531 147.460938 187.046875 138.789062 187.046875 138.789062 C 187.046875 138.789062 202.90625 126.402344 198.445312 108.5625 C 209.597656 109.800781 189.03125 84.035156 186.554688 80.066406 C 186.554688 80.066406 193.742188 8.957031 175.15625 2.515625 C 156.574219 -3.921875 135.265625 38.445312 133.53125 38.445312 C 131.796875 38.445312 123.535156 34.148438 111.808594 33.488281 C 100.082031 32.828125 88.519531 36.625 88.519531 36.625 C 88.519531 36.625 64.566406 -4.84375 48.214844 1.851562 C 31.863281 8.546875 36.652344 71.3125 37.148438 80.070312 C 37.148438 80.070312 21.785156 97.167969 22.035156 102.867188 C 22.28125 108.566406 25.503906 109.804688 25.503906 109.804688 C 25.503906 109.804688 24.015625 120.457031 25.996094 125.414062 C 27.980469 130.367188 52.753906 153.164062 54.492188 157.625 C 56.226562 162.085938 53.253906 209.160156 57.464844 234.433594 C 61.675781 259.707031 73.074219 279.03125 77.535156 310.996094 C 81.996094 342.960938 75.054688 375.167969 77.535156 377.398438 C 80.011719 379.628906 105.285156 379.628906 108.753906 377.398438 C 112.222656 375.167969 115.195312 346.179688 115.445312 329.332031 C 115.691406 312.484375 115.445312 288.203125 115.445312 288.203125 C 115.445312 288.203125 133.53125 289.6875 135.761719 294.148438 C 137.992188 298.609375 137.746094 322.890625 137 338.996094 C 136.257812 355.101562 131.054688 377.648438 132.785156 380.375 C 134.519531 383.101562 157.8125 386.074219 163.511719 380.375 C 169.210938 374.675781 178.378906 286.46875 179.863281 284.734375 C 181.347656 283 217.527344 258.964844 217.527344 258.964844 C 217.527344 258.964844 218.023438 272.59375 221.984375 278.292969 C 225.949219 283.992188 250.976562 305.796875 251.472656 311.742188 C 251.964844 317.6875 226.695312 359.066406 229.421875 360.800781 C 232.144531 362.535156 261.878906 365.261719 267.582031 361.792969 C 273.277344 358.324219 282.941406 335.03125 285.167969 325.617188 C 287.398438 316.203125 289.878906 295.140625 289.878906 295.140625 C 289.878906 295.140625 318.125 309.265625 319.609375 312.980469 C 321.097656 316.695312 319.855469 339.988281 316.636719 349.402344 C 313.417969 358.816406 303.503906 376.160156 305.734375 377.644531 C 307.964844 379.136719 341.910156 380.621094 344.632812 378.390625 C 347.359375 376.160156 358.015625 315.703125 355.289062 296.128906 C 352.5625 276.554688 342.40625 279.035156 341.414062 270.609375 C 340.425781 262.183594 343.644531 219.566406 341.660156 206.929688 C 339.679688 194.292969 333.976562 190.578125 333.976562 188.097656 C 333.976562 185.621094 351.574219 176.949219 358.261719 165.304688 Z M 77.125 104.1875 C 69.828125 104.1875 63.910156 94.941406 63.910156 83.539062 C 63.910156 72.136719 69.828125 62.890625 77.125 62.890625 C 84.421875 62.890625 90.339844 72.136719 90.339844 83.539062 C 90.335938 94.941406 84.421875 104.1875 77.125 104.1875 Z M 100.824219 167.410156 C 91.90625 167.410156 86.453125 156.507812 88.066406 147.21875 C 97.230469 147.589844 100.246094 142.507812 100.246094 142.507812 C 103.921875 148.582031 113.957031 146.84375 114.699219 146.96875 C 114.703125 155.519531 109.746094 167.410156 100.824219 167.410156 Z M 100.246094 135.984375 C 92.265625 135.984375 85.792969 131.953125 85.792969 126.980469 C 85.792969 122.011719 92.265625 117.980469 100.246094 117.980469 C 108.230469 117.980469 114.699219 122.011719 114.699219 126.980469 C 114.703125 131.957031 108.230469 135.984375 100.246094 135.984375 Z M 134.277344 104.1875 C 126.980469 104.1875 121.0625 94.941406 121.0625 83.539062 C 121.0625 72.136719 126.980469 62.890625 134.277344 62.890625 C 141.574219 62.890625 147.492188 72.136719 147.492188 83.539062 C 147.492188 94.941406 141.574219 104.1875 134.277344 104.1875 Z M 134.277344 104.1875 "/>
  </g>
</svg>

<svg xmlns="http://www.w3.org/2000/svg" viewBox="0 0 384 384"><path d="M358.262 165.305c6.687-11.649 1.234-16.106 1.234-16.106s5.207-26.762-5.45-26.762c0-5.945-15.855-27.003-17.343-16.351 0 0-29.98-23.785-61.941-6.195-31.965 17.593-29.735 50.046-29.735 50.046s-23.539.497-32.21-.988c-8.672-1.488-25.77-10.16-25.77-10.16s15.86-12.387 11.398-30.226c11.153 1.238-9.414-24.528-11.89-28.497 0 0 7.187-71.109-11.399-77.55-18.582-6.438-39.89 35.93-41.625 35.93-1.734 0-9.996-4.298-21.722-4.958-11.727-.66-23.29 3.137-23.29 3.137S64.567-4.844 48.216 1.852C31.863 8.547 36.652 71.312 37.148 80.07c0 0-15.363 17.098-15.113 22.797.246 5.7 3.469 6.938 3.469 6.938s-1.488 10.652.492 15.61c1.984 4.952 26.758 27.75 28.496 32.21 1.735 4.46-1.238 51.535 2.973 76.809 4.21 25.273 15.61 44.597 20.07 76.562 4.461 31.965-2.48 64.172 0 66.402 2.477 2.23 27.75 2.23 31.219 0 3.469-2.23 6.441-31.218 6.691-48.066.246-16.848 0-41.129 0-41.129s18.086 1.485 20.317 5.945c2.23 4.461 1.984 28.743 1.238 44.848-.742 16.106-5.945 38.652-4.215 41.379 1.735 2.727 25.028 5.7 30.727 0 5.699-5.7 14.867-93.906 16.351-95.64 1.485-1.735 37.664-25.77 37.664-25.77s.496 13.629 4.457 19.328c3.965 5.7 28.993 27.504 29.489 33.45.492 5.945-24.778 47.323-22.051 49.058 2.723 1.734 32.457 4.46 38.16.992 5.695-3.469 15.36-26.762 17.586-36.176 2.23-9.414 4.71-30.476 4.71-30.476s28.247 14.125 29.731 17.84c1.489 3.714.246 27.007-2.972 36.421-3.219 9.414-13.133 26.758-10.903 28.243 2.23 1.492 36.176 2.976 38.899.746 2.726-2.23 13.383-62.688 10.656-82.262-2.726-19.574-12.883-17.094-13.875-25.52-.988-8.425 2.23-51.043.246-63.68-1.98-12.636-7.683-16.35-7.683-18.831 0-2.477 17.597-11.149 24.285-22.793zM77.125 104.187c-7.297 0-13.215-9.246-13.215-20.648s5.918-20.648 13.215-20.648S90.34 72.137 90.34 83.539c-.004 11.402-5.918 20.648-13.215 20.648zm23.7 63.223c-8.919 0-14.372-10.902-12.759-20.191 9.164.37 12.18-4.711 12.18-4.711 3.676 6.074 13.711 4.336 14.453 4.46.004 8.552-4.953 20.442-13.875 20.442zm-.579-31.426c-7.98 0-14.453-4.03-14.453-9.004 0-4.968 6.473-9 14.453-9 7.984 0 14.453 4.032 14.453 9 .004 4.977-6.469 9.004-14.453 9.004zm34.031-31.797c-7.297 0-13.214-9.246-13.214-20.648s5.917-20.648 13.214-20.648c7.297 0 13.215 9.246 13.215 20.648s-5.918 20.648-13.215 20.648zm0 0"/></svg>
